X:30
T:Lady Shaftsbury's Delight
N:page 19 on manuscript
M:2/4
L:1/8
K:C
e/d/ | cGEG | cdea | g>e f/e/d/c/| Bd d(e/d/) | cGE>G | c>de>a | g>ed>e |  c3 :|
|: (g/a//b//) | c'bag | c'2 ca | g>ed>c | Bdd (g//a///b///) | c'bag | c'2 c>a | g>ed>e |
d3 g | c'bag | g/f/g/a/ b/a/b/c'/ | d'ddd | d>efa | g>age | dcde | (c/d/e/d/) cc | c2 |]

